X:2443
L:1/8
M:4/4
K:Dmix
|: Addc AGEF | GEcE dEcE | Addc AGEF | GEcE ED D2 | Addc AGEF | G2 AB c2 cd | ecdc AGEF | 
 GEcE ED D2 :|

